Numix/32/actions/distribute-horizontal-left.svg

<?xml version="1.0" encoding="UTF-8" standalone="no"?>
<svg
   xmlns:dc="http://purl.org/dc/elements/1.1/"
   xmlns:cc="http://creativecommons.org/ns#"
   xmlns:rdf="http://www.w3.org/1999/02/22-rdf-syntax-ns#"
   xmlns:svg="http://www.w3.org/2000/svg"
   xmlns="http://www.w3.org/2000/svg"
   xmlns:sodipodi="http://sodipodi.sourceforge.net/DTD/sodipodi-0.dtd"
   xmlns:inkscape="http://www.inkscape.org/namespaces/inkscape"
   width="32"
   height="32"
   viewBox="0 0 32 32"
   id="svg2"
   version="1.1"
   inkscape:version="0.91 r"
   sodipodi:docname="distribute-horizontal-left.svg">
  <metadata
     id="metadata14">
    <rdf:RDF>
      <cc:Work
         rdf:about="">
        <dc:format>image/svg+xml</dc:format>
        <dc:type
           rdf:resource="http://purl.org/dc/dcmitype/StillImage" />
        <dc:title></dc:title>
      </cc:Work>
    </rdf:RDF>
  </metadata>
  <defs
     id="defs12">
    <inkscape:perspective
       sodipodi:type="inkscape:persp3d"
       inkscape:vp_x="0 : 24 : 1"
       inkscape:vp_y="0 : 1000 : 0"
       inkscape:vp_z="48 : 24 : 1"
       inkscape:persp3d-origin="24 : 16 : 1"
       id="perspective4184" />
    <path
       d="m 14,12 20,0 c 1.105,0 2,0.895 2,2 l 0,20 c 0,1.105 -0.895,2 -2,2 l -20,0 c -1.105,0 -2,-0.895 -2,-2 l 0,-20 c 0,-1.105 0.895,-2 2,-2 m 0,0"
       id="SVGCleanerId_0"
       inkscape:connector-curvature="0" />
  </defs>
  <sodipodi:namedview
     pagecolor="#ffffff"
     bordercolor="#666666"
     borderopacity="1"
     objecttolerance="10"
     gridtolerance="10"
     guidetolerance="10"
     inkscape:pageopacity="0"
     inkscape:pageshadow="2"
     inkscape:window-width="1920"
     inkscape:window-height="1056"
     id="namedview10"
     showgrid="true"
     inkscape:zoom="15.999999"
     inkscape:cx="13.072351"
     inkscape:cy="13.731627"
     inkscape:window-x="0"
     inkscape:window-y="24"
     inkscape:window-maximized="1"
     inkscape:current-layer="svg2"
     showguides="false">
    <inkscape:grid
       type="xygrid"
       id="grid4207" />
  </sodipodi:namedview>
  <rect
     style="opacity:1;fill:#268bd2;fill-opacity:1;fill-rule:nonzero;stroke:none;stroke-width:2;stroke-linecap:butt;stroke-linejoin:miter;stroke-miterlimit:4;stroke-dasharray:none;stroke-dashoffset:0;stroke-opacity:1"
     id="rect4147"
     width="2"
     height="24"
     x="3"
     y="5" />
  <path
     transform="matrix(0,-1.4433757,-1.6666666,0,56.669583,54.31045)"
     d="m 35.895332,31.001751 -1.73205,-3 3.464101,0 z"
     inkscape:randomized="0"
     inkscape:rounded="0"
     inkscape:flatsided="true"
     sodipodi:arg2="2.6179939"
     sodipodi:arg1="1.5707963"
     sodipodi:r2="1"
     sodipodi:r1="2"
     sodipodi:cy="29.001751"
     sodipodi:cx="35.895332"
     sodipodi:sides="3"
     id="path4147"
     style="opacity:1;fill:#268bd2;fill-opacity:1;fill-rule:nonzero;stroke:none;stroke-width:2;stroke-linecap:butt;stroke-linejoin:miter;stroke-miterlimit:4;stroke-dasharray:none;stroke-dashoffset:0;stroke-opacity:1"
     sodipodi:type="star"
     inkscape:transform-center-x="0.8333323" />
  <rect
     style="opacity:1;fill:#ffffff;fill-opacity:1;fill-rule:nonzero;stroke:none;stroke-width:2;stroke-linecap:butt;stroke-linejoin:miter;stroke-miterlimit:4;stroke-dasharray:none;stroke-dashoffset:0;stroke-opacity:1"
     id="rect4143"
     width="8"
     height="18"
     x="4"
     y="8" />
  <rect
     y="5"
     x="19"
     height="24"
     width="2"
     id="rect4165"
     style="opacity:1;fill:#268bd2;fill-opacity:1;fill-rule:nonzero;stroke:none;stroke-width:2;stroke-linecap:butt;stroke-linejoin:miter;stroke-miterlimit:4;stroke-dasharray:none;stroke-dashoffset:0;stroke-opacity:1" />
  <rect
     y="10"
     x="20"
     height="14"
     width="8"
     id="rect4145"
     style="opacity:1;fill:#ffffff;fill-opacity:1;fill-rule:nonzero;stroke:none;stroke-width:2;stroke-linecap:butt;stroke-linejoin:miter;stroke-miterlimit:4;stroke-dasharray:none;stroke-dashoffset:0;stroke-opacity:1" />
  <path
     style="opacity:1;fill:#888888;fill-opacity:1;stroke:none;stroke-width:2;stroke-linecap:butt;stroke-linejoin:miter;stroke-miterlimit:4;stroke-dasharray:none;stroke-opacity:1"
     d="M 3.0001667,27 13,27 13,7 3.0001667,7 Z m 1.9996666,-2 0,-16.0000001 6.0001667,0 L 11,25 Z M 19,25 29,25 29,9 19,9 Z m 2,-2 0,-12 5.999999,0 0,12 z"
     id="rect4135-5"
     inkscape:connector-curvature="0"
     sodipodi:nodetypes="cccccccccccccccccccc" />
  <path
     inkscape:transform-center-x="-0.83333211"
     sodipodi:type="star"
     style="opacity:1;fill:#268bd2;fill-opacity:1;fill-rule:nonzero;stroke:none;stroke-width:2;stroke-linecap:butt;stroke-linejoin:miter;stroke-miterlimit:4;stroke-dasharray:none;stroke-dashoffset:0;stroke-opacity:1"
     id="path4163"
     sodipodi:sides="3"
     sodipodi:cx="35.895332"
     sodipodi:cy="29.001751"
     sodipodi:r1="2"
     sodipodi:r2="1"
     sodipodi:arg1="1.5707963"
     sodipodi:arg2="2.6179939"
     inkscape:flatsided="true"
     inkscape:rounded="0"
     inkscape:randomized="0"
     d="m 35.895332,31.001751 -1.73205,-3 3.464101,0 z"
     transform="matrix(0,-1.4433757,1.6666666,0,-32.669583,54.31045)" />
</svg>

<svg xmlns="http://www.w3.org/2000/svg" viewBox="0 0 32 32">
 <rect width="2" height="24" x="3" y="5" style="fill:#268bd2;opacity:1;fill-opacity:1;stroke:none;fill-rule:nonzero"/>
 <path transform="matrix(0,-1.4433757,-1.6666666,0,56.669583,54.31045)" d="m 35.895 31 -1.732 -3 3.464 0 z" style="fill:#268bd2;opacity:1;fill-opacity:1;stroke:none;fill-rule:nonzero"/>
 <rect width="8" height="18" x="4" y="8" style="fill:#fff;opacity:1;fill-opacity:1;stroke:none;fill-rule:nonzero"/>
 <rect y="5" x="19" height="24" width="2" style="fill:#268bd2;opacity:1;fill-opacity:1;stroke:none;fill-rule:nonzero"/>
 <rect y="10" x="20" height="14" width="8" style="fill:#fff;opacity:1;fill-opacity:1;stroke:none;fill-rule:nonzero"/>
 <path d="m 3 27 10 0 0 -20 -10 0 m 2 18 0 -16 6 0 l 0 16 m 8 0 10 0 0 -16 -10 0 m 2 14 0 -12 6 0 0 12 z" style="fill:#888;opacity:1;fill-opacity:1;stroke:none"/>
 <path d="m 35.895 31 -1.732 -3 3.464 0 z" transform="matrix(0,-1.4433757,1.6666666,0,-32.669583,54.31045)" style="fill:#268bd2;opacity:1;fill-opacity:1;stroke:none;fill-rule:nonzero"/>
</svg>
